X:44
T:Herbert Smith's 3-part polka
C:from the playing of Dave Hill
N:by ear, Andy
Q:1/4=180
I:abc2nwc
L:1/8
K:G
dc|B2d2B2d2|BBBB B2d2|B2d2B2d2|cccc c2e2|c2e2c2e2|
ffff f2g2|[1a2g2f2e2|dddd d2:|[2a2g2f2a2|g8
|:
K:D
A2Bc d2e2|f2g2a4|a4e3g|f2e2d4|A2Bc d2e2|f2g2a4|a4e3g|[1f4d4:|[2f4d2
|:
K:G
ef|g2B2g2B2|dddd d2B2|d2B2d2B2|cccc c2f2|aaaa a2g2|
ffff f2e2|[1d2dd e2d2|B4d2:|[2d2dd e2f2|g6|]


